X:1
T:Title
L:1/8
Q:1/4=100
M:2/4
K:Ab
V:1 treble nm="Grand Piano"
V:1
 =EF E2 | D2 C2 | G2 GF | G3 G/A/ | BA GF | AG F=E | FG =ED | D2 C2 | B,C DF | =ED C2 | G2 GF | %11
w: ????~???? * *|||||||||||
 G3 G | BA GF | c2 c2 | dc BA | c4 | z c cc | dc BA | cB AG | BA GF- | FF GA | BA GA | GF =EF | %23
w: ||||||||||||
 B4 | z B BB | _c2 AA | B2 AG | c2 A>G | FF AG | FB AG | AG FF | c4 | C2 =EF | G G2 D | C2 FG | %35
w: ||||||||||||
 A A2 A | BA GF | AG F=E | FG =ED | D2 C2 | C2 =EF | G =E2 D | C2 FG | A A2 A | BA GF | c2 c2 | %46
w: |||||||||||
 dc BA | c3 c | d2 dc | BA GF | c2 cB | AG F2 | B2 BA | GF =EF | GA/B/ AG | G2 B2- | BB BB | %57
w: |||||||||||
 _c2 A2 | B2 G2 | A2 FF | GF =ED | F=E DC | c2 cB | c4 | B2 B2 | c A2 F | A2 A2 | B G2 F | AG FE | %69
w: ||||||||||||
 F2 F=E | =E4- | E4 | B, B,2 C | DF =EA | GF =ED | D2 C2 |] %76
w: |||||||

